packages/icons/src/lib/svgs/visa.svg

<svg
        aria-hidden="true"
        data-testid="test-icon"
        fill="none"
        
        viewBox="0 0 46 24"
        
        xmlns="http://www.w3.org/2000/svg"
        
    >
        <title>visa icon</title>
        <path
            d="M23.2729 12.8118C23.2473 14.9083 25.0769 16.0784 26.4552 16.7739C27.8713 17.4877 28.3469 17.9454 28.3415 18.5835C28.3307 19.5604 27.2119 19.9915 26.1646 20.0083C24.3377 20.0377 23.2756 19.4974 22.4311 19.0888L21.773 22.2784C22.6203 22.6828 24.1891 23.0355 25.816 23.0509C29.6347 23.0509 32.1332 21.0985 32.1467 18.0713C32.1616 14.2295 27.0159 14.0168 27.0511 12.2996C27.0632 11.7789 27.5429 11.2233 28.5942 11.082C29.1145 11.0106 30.5509 10.956 32.1791 11.7328L32.8183 8.64675C31.9427 8.31646 30.8171 8.00016 29.4158 8.00016C25.8214 8.00016 23.2932 9.97912 23.2729 12.8118ZM38.9598 8.26607C38.2626 8.26607 37.6748 8.68734 37.4126 9.33393L31.9575 22.8242H35.7735L36.5329 20.6507H41.1962L41.6367 22.8242H45L42.065 8.26607H38.9598ZM39.4936 12.1988L40.5949 17.6654H37.5788L39.4936 12.1988ZM18.6462 8.26607L15.6382 22.8242H19.2745L22.2811 8.26607H18.6462ZM13.2668 8.26607L9.48186 18.1749L7.95087 9.7496C7.77115 8.8091 7.06174 8.26607 6.27395 8.26607H0.0864813L0 8.68874C1.27019 8.97425 2.71335 9.4347 3.58762 9.92734C4.12273 10.2282 4.27542 10.4914 4.45108 11.2065L7.35091 22.8242H11.1939L17.0855 8.26607H13.2668Z"
            fill="currentColor"
        />
    </svg>

<svg aria-hidden="true" data-testid="test-icon" fill="currentColor" viewBox="0 0 46 24" xmlns="http://www.w3.org/2000/svg"><path d="M23.273 12.812c-.026 2.096 1.804 3.266 3.182 3.962 1.416.714 1.892 1.171 1.887 1.81-.011.976-1.13 1.407-2.177 1.424-1.827.03-2.89-.51-3.734-.92l-.658 3.19c.847.405 2.416.758 4.043.773 3.819 0 6.317-1.952 6.33-4.98.016-3.842-5.13-4.054-5.095-5.771.012-.521.492-1.077 1.543-1.218.52-.071 1.957-.126 3.585.65l.64-3.085C31.942 8.317 30.816 8 29.415 8c-3.595 0-6.123 1.98-6.143 4.812zM38.96 8.266c-.697 0-1.285.421-1.547 1.068l-5.455 13.49h3.816l.759-2.173h4.663l.44 2.173H45L42.065 8.266H38.96zm.534 3.933l1.1 5.466H37.58l1.915-5.466zM18.646 8.266l-3.008 14.558h3.636l3.007-14.558h-3.635zm-5.38 0l-3.784 9.909L7.95 9.75c-.18-.94-.89-1.484-1.677-1.484H.086L0 8.69c1.27.285 2.713.746 3.588 1.238.535.301.687.564.863 1.28l2.9 11.617h3.843l5.891-14.558h-3.818z"/></svg>
